packages/icons/raw/imported/FilesFolderClosed.svg

<svg width="32" height="32" viewBox="0 0 32 32" fill="none" xmlns="http://www.w3.org/2000/svg">
<path d="M16.7307 10.1538L16.302 10.4111L16.4476 10.6538L16.7307 10.6538L16.7307 10.1538ZM14.5384 6.5L14.9672 6.24275L14.8215 6L14.5384 6L14.5384 6.5ZM25.4999 13.1538L25.9999 13.1538L25.4999 13.1538ZM25.4999 22.5L24.9999 22.5L25.4999 22.5ZM5.99997 9.5L5.99997 22.5L6.99997 22.5L6.99997 9.5L5.99997 9.5ZM22.4999 25L9.49996 25L9.49996 26L22.4999 26L22.4999 25ZM24.9999 13.1538L24.9999 22.5L25.9999 22.5L25.9999 13.1538L24.9999 13.1538ZM22.4999 9.65383L16.7307 9.65383L16.7307 10.6538L22.4999 10.6538L22.4999 9.65383ZM17.1595 9.89659L14.9672 6.24275L14.1097 6.75725L16.302 10.4111L17.1595 9.89659ZM14.5384 6L9.49997 6L9.49997 7L14.5384 7L14.5384 6ZM25.9999 13.1538C25.9999 11.2208 24.4329 9.65383 22.4999 9.65383L22.4999 10.6538C23.8806 10.6538 24.9999 11.7731 24.9999 13.1538L25.9999 13.1538ZM6.99997 9.5C6.99997 8.11929 8.11926 7 9.49997 7L9.49997 6C7.56697 6 5.99997 7.567 5.99997 9.5L6.99997 9.5ZM5.99997 22.5C5.99997 24.433 7.56697 26 9.49996 26L9.49996 25C8.11925 25 6.99997 23.8807 6.99997 22.5L5.99997 22.5ZM22.4999 26C24.4329 26 25.9999 24.433 25.9999 22.5L24.9999 22.5C24.9999 23.8807 23.8806 25 22.4999 25L22.4999 26Z" fill="black"/>
</svg>

<svg width="32" height="32" fill="none" xmlns="http://www.w3.org/2000/svg"><path d="m16.73 10.154-.428.257.146.243h.283v-.5ZM14.539 6.5l.43-.257L14.821 6h-.284v.5ZM25.5 13.154h.5-.5Zm0 9.346H25h.5ZM6 9.5v13h1v-13H6ZM22.5 25h-13v1h13v-1ZM25 13.154V22.5h1v-9.346h-1Zm-2.5-3.5h-5.77v1h5.77v-1Zm-5.34.243-2.193-3.654-.857.514 2.192 3.654.858-.514ZM14.538 6H9.5v1h5.038V6ZM26 13.154a3.5 3.5 0 0 0-3.5-3.5v1a2.5 2.5 0 0 1 2.5 2.5h1ZM7 9.5A2.5 2.5 0 0 1 9.5 7V6A3.5 3.5 0 0 0 6 9.5h1Zm-1 13A3.5 3.5 0 0 0 9.5 26v-1A2.5 2.5 0 0 1 7 22.5H6ZM22.5 26a3.5 3.5 0 0 0 3.5-3.5h-1a2.5 2.5 0 0 1-2.5 2.5v1Z" fill="#000"/></svg>
